Papirus/32x32/apps/media-downloader.svg

<svg width="32" height="32" version="1.1" xmlns="http://www.w3.org/2000/svg">
 <circle cx="16" cy="17" r="14" style="opacity:.2"/>
 <circle cx="16" cy="16" r="14" style="fill:#25b7d3"/>
 <path d="M 16,2 A 14,14 0 0 0 2,16 14,14 0 0 0 2.0215,16.586 14,14 0 0 1 16,3 14,14 0 0 1 29.979,16.414 14,14 0 0 0 30,16 14,14 0 0 0 16,2 Z" style="fill:#ffffff;opacity:.2"/>
 <rect x="14.000005" y="22" width="3.9999955" height="3.9999998" style="fill:#e2e4e5;stop-color:#000000"/>
 <rect x="6.9999967" y="19.154476" width="18.000004" height="4.8455234" rx="1.0109172" ry="1.0109172" style="font-variation-settings:normal;opacity:.2;stop-color:#000000"/>
 <rect x="6.9999967" y="18.154476" width="18.000004" height="4.8455234" rx="1.0109172" ry="1.0109172" style="fill:#ffffff;stop-color:#000000"/>
 <path d="m8.010914 11h15.978169c0.560048 0 1.010918 0.450869 1.010918 1.010917v7.989083h-18.000004v-7.989083c0-0.560048 0.450869-1.010917 1.010917-1.010917z" style="fill:#3f3f3f;stop-color:#000000"/>
 <path d="M 8.011719,11 C 7.451671,11 7,11.451671 7,12.011718 v 1 C 7,12.451671 7.451671,12 8.011719,12 H 23.988281 C 24.548329,12 25,12.451671 25,13.011718 v -1 C 25,11.451671 24.548329,11 23.988281,11 Z" style="fill:#ffffff;opacity:.2;stop-color:#000000"/>
 <circle cx="16" cy="13" r="5.9999995" style="opacity:.1"/>
 <circle cx="16" cy="11.999999" r="5.9999995" style="fill:#ffffff"/>
 <path d="m14 7.9999996h4v3.0000004h2l-4 5-4-5h2z" style="fill:#17b198;stop-color:#000000"/>
 <rect x="12.000009" y="25" width="7.9999914" height="1.0000001" style="fill:#f2f2f2;stop-color:#000000"/>
 <path d="m14 8v1h4v-1zm-2 3 0.800781 1h1.199219v-1zm6 0v1h1.199219l0.800781-1z" style="fill:#ffffff;font-variation-settings:normal;opacity:.2;stop-color:#000000"/>
 <ellipse cx="16" cy="21.5" rx=".50000262" ry=".49999979" style="fill:#cccccc"/>
 <rect x="12.000009" y="26" width="7.9999914" height="1.0000001" style="font-variation-settings:normal;opacity:.2;stop-color:#000000"/>
</svg>

<svg xmlns="http://www.w3.org/2000/svg" width="32" height="32" version="1.1">
 <circle style="opacity:0.2" cx="16" cy="17" r="14"/>
 <circle style="fill:#25b7d3" cx="16" cy="16" r="14"/>
 <path style="fill:#ffffff;opacity:0.2" d="M 16,2 A 14,14 0 0 0 2,16 14,14 0 0 0 2.0215,16.586 14,14 0 0 1 16,3 14,14 0 0 1 29.979,16.414 14,14 0 0 0 30,16 14,14 0 0 0 16,2 Z"/>
 <rect style="fill:#e2e4e5" width="4" height="3.5" x="14" y="22"/>
 <rect style="opacity:0.2" width="18" height="4" x="7" y="20" rx="1" ry="1"/>
 <rect style="fill:#ffffff" width="18" height="4" x="7" y="19" rx="1" ry="1"/>
 <path style="fill:#3f3f3f" d="M 8 11 C 7.446 11 7 11.446 7 12 L 7 20 L 25 20 L 25 12 C 25 11.446 24.554 11 24 11 L 8 11 z"/>
 <rect style="fill:#cccccc" width="2" height="1" x="15" y="21" rx="1" ry="1"/>
 <path style="opacity:0.1;fill:#ffffff" d="M 8 11 C 7.446 11 7 11.446 7 12 L 7 13 C 7 12.446 7.446 12 8 12 L 24 12 C 24.554 12 25 12.446 25 13 L 25 12 C 25 11.446 24.554 11 24 11 L 8 11 z"/>
 <circle style="opacity:0.1" cx="16" cy="13" r="6"/>
 <circle style="fill:#ffffff" cx="16" cy="12" r="6"/>
 <path style="fill:#17b198" d="M 14,8 H 18 V 11 H 20 L 16,16 12,11 H 14 Z"/>
 <rect style="fill:#f2f2f2" width="8" height="1" x="12" y="25"/>
 <rect style="opacity:0.2" width="8" height="1" x="12" y="26"/>
</svg>
